!!!ONB: MCCC : IJB0063_01 : Extracted Monophonic Melody
!!!COM: Bach, Johann Sebastian
!!!OPR: Cello Suite No.1
!!!OMV: 1
!!!SCT: BWV 1007
!!!ODT: 1717///
**kern
*staff1
*IVioloncello
*clefF4
*k[f#]
*G:
*M4/4
=1-
16GG
16D
16B
16A
16B
16D
16B
16D
16GG
16D
16B
16A
16B
16D
16B
16D
=2
16GG
16E
16c
16B
16c
16E
16c
16E
16GG
16E
16c
16B
16c
16E
16c
16E
=3
16GG
16F#
16c
16B
16c
16F#
16c
16F#
16GG
16F#
16c
16B
16c
16F#
16c
16F#
=4
16GG
16G
16B
16A
16B
16G
16B
16G
16GG
16G
16B
16A
16B
16G
16B
16F#
=5
16GG
16E
16B
16A
16B
16G
16F#
16G
16E
16G
16F#
16G
16BB
16D
16C#
16BB
=6
16C#
16G
16A
16G
16A
16G
16A
16G
16C#
16G
16A
16G
16A
16G
16A
16G
=7
16F#
16A
16d
16c#
16d
16A
16G
16A
16F#
16A
16G
16A
16D
16F#
16E
16D
=8
16EE
16BB
16G
16F#
16G
16BB
16G
16BB
16EE
16BB
16G
16F#
16G
16BB
16G
16BB
=9
16EE
16C#
16D
16E
16D
16C#
16BB
16AA
16G
16F#
16E
16d
16c#
16B
16A
16G
=10
16F#
16E
16D
16d
16A
16d
16F#
16A
16D
16E
16F#
16A
16G
16F#
16E
16D
=11
16G#
16D
16F
16E
16F
16D
16G#
16D
16B
16D
16F
16E
16F
16D
16G#
16D
=12
16C
16E
16A
16B
16c
16A
16E
16D
16C
16E
16A
16B
16c
16A
16F#
16E
=13
16D#
16F#
16D#
16F#
16A
16F#
16A
16F#
16D#
16F#
16D#
16F#
16A
16F#
16A
16F#
=14
16G
16F#
16E
16G
16F#
16G
16A
16F#
16G
16F#
16E
16D
16C
16BB
16AA
16GG
=15
16FF#
16C
16D
16C
16D
16C
16D
16C
16FF#
16C
16D
16C
16D
16C
16D
16C
=16
16GG
16BB
16F
16E
16F
16BB
16F
16BB
16GG
16BB
16F
16E
16F
16BB
16F
16BB
=17
16GG
16C
16E
16D
16E
16C
16E
16C
16GG
16C
16E
16D
16E
16C
16E
16C
=18
16GG
16F#
16c
16B
16c
16F#
16c
16F#
16GG
16F#
16c
16B
16c
16F#
16c
16F#
=19
16GG
16D
16B
16A
16B
16G
16F#
16E
16D
16C
16BB
16AA
16GG
16FF#
16EE
16DD
=20
16CC#
16AA
16E
16F#
16G
16E
16F#
16G
16CC#
16AA
16E
16F#
16G
16E
16F#
16G
=21
16CC
16AA
16D
16E
16F#
16D
16E
16F#
16CC
16AA
16D
16E
16F#
16D
16E
16F#
=22
16CC
16AA
16D
16F#
16A
16c#
[8d
16d]
16AA
16BB
16C
16D
16E
16F#
16G
=23
16A
16F#
16D
16E
16F#
16G
16A
16B
16c
16A
16F#
16G
16A
16B
16c
16d
=24
16e-
16d
16c#
16d
16d
16c
16B
16c
16c
16A
16F#
16E
16D
16AA
16BB
16C
=25
16DD
16AA
16D
16F#
16A
16B
16c
16A
16B
16G
16D
16C
16BB
16GG
16AA
16BB
=26
16DD
16GG
16BB
16D
16G
16A
16B
16G
16c#
16B
16A
16B-
16B-
16A
16G#
16A
=27
16A
16G
16F#
16G
16G
16E
16C#
16BB
16AA
16C#
16E
16G
16A
16c#
16d
16c#
=28
16d
16A
16F#
16E
16F#
16A
16D
16F#
16AA
16D
16C#
16BB
16AA
16GG
16FF#
16EE
=29
8DD
16c
16B
16A
16G
16F#
16E
16D
16c
16B
16A
16G
16F#
16E
16D
=30
16C
16B
16A
16G
16F#
16E
16D
16C
16BB
16A
16G
16F#
16E
16D
16C
16BB
=31
16AA
16G
16F#
16E
16F#
16A
16D
16A
16E
16A
16F#
16A
16G
16A
16E
16A
=32
16F#
16A
16D
16A
16G
16A
16E
16A
16F#
16A
16D
16A
16G
16A
16E
16A
=33
16F#
16A
16D
16A
16E
16A
16F#
16A
16G
16A
16A
16A
16B
16A
16D
16A
=34
16A
16A
16B
16A
16c
16A
16D
16A
16B
16A
16c
16A
16d
16A
16B
16A
=35
16c
16A
16B
16A
16c
16A
16A
16A
16B
16A
16A
16A
16B
16A
16G
16A
=36
16A
16A
16G
16A
16A
16A
16F#
16A
16G
16A
16F#
16A
16G
16A
16E
16A
=37
16F#
16A
16D
16E
16F
16D
16F#
16D
16G
16D
16G#
16D
16A
16D
16B-
16D
=38
16B
16D
16c
16D
16c#
16D
16d
16D
16e-
16D
16e
16D
16f
16D
16f#
16D
=39
16g
16B
16D
16B
16g
16B
16g
16B
16g
16B
16D
16B
16g
16B
16g
16B
=40
16g
16A
16D
16A
16g
16A
16g
16A
16g
16A
16D
16A
16g
16A
16g
16A
=41
16f#
16c
16D
16c
16f#
16c
16f#
16c
16f#
16c
16D
16c
16f#
16c
16f#
16c
=42
1g
==
*-
